lib/flags/s/NIU.svg

<svg xmlns="http://www.w3.org/2000/svg" fill="none" viewBox="0 0 16 12"><mask id="NIU_svg__a" width="16" height="12" x="0" y="0" mask-type="alpha" maskUnits="userSpaceOnUse"><path fill="#fff" d="M0 0H16V12H0z"/></mask><g mask="url(#NIU_svg__a)"><path fill="#2E42A5" fill-rule="evenodd" d="M0 0V12H16V0H0Z" clip-rule="evenodd"/><mask id="NIU_svg__b" width="16" height="12" x="0" y="0" mask-type="alpha" maskUnits="userSpaceOnUse"><path fill="#fff" fill-rule="evenodd" d="M0 0V12H16V0H0Z" clip-rule="evenodd"/></mask><g mask="url(#NIU_svg__b)"><path fill="#FECA00" fill-rule="evenodd" d="M0 8V12H16V8H0Z" clip-rule="evenodd"/><mask id="NIU_svg__c" width="16" height="8" x="0" y="0" mask-type="alpha" maskUnits="userSpaceOnUse"><path fill="#fff" d="M0 0H16V8H0z"/></mask><g mask="url(#NIU_svg__c)"><path fill="#fff" d="M-1.1311 7.56481L2.04026 8.29846L8.80079 4.563L9.51617 4.14469L15.938 0.78686L17.4593 -0.273654L13.9795 -0.594584L8.36866 2.57042L4.31397 4.563L-1.1311 7.56481Z"/><path fill="#F50100" d="M-0.852478 8.00951L0.854994 8.56958L16.8245 -0.406928H14.427L-0.852478 8.00951Z"/><path fill="#fff" d="M17.1854 7.36539L17.3113 8.1204L13.9597 8.29834L8.55665 5.13367L8.04722 5.30771L-2.04023 0.205323L2.12469 -0.596345L7.69267 2.47959L12.0484 4.58422L17.1854 7.36539Z"/><path fill="#F50100" d="M17.1969 7.81859L15.4894 8.37866L8.68946 4.53535L6.67341 4.10595L-1.62947 -0.268791H0.768023L9.06624 4.00211L11.2704 4.51701L17.1969 7.81859Z"/><path fill="#fff" d="M6.5945 -0.625V-1.25H5.9695V-0.625H6.5945ZM6.5945 2.375V3H7.2195V2.375H6.5945ZM-0.625 2.375V1.75H-1.25V2.375H-0.625ZM-0.625 5.625H-1.25V6.25H-0.625V5.625ZM6.5945 5.625H7.2195V5H6.5945V5.625ZM6.5945 9.625H5.9695V10.25H6.5945V9.625ZM9.43877 9.625V10.25H10.0638V9.625H9.43877ZM9.43877 5.625V5H8.81377V5.625H9.43877ZM16.625 5.625V6.25H17.25V5.625H16.625ZM16.625 2.375H17.25V1.75H16.625V2.375ZM9.43877 2.375H8.81377V3H9.43877V2.375ZM9.43877 -0.625H10.0638V-1.25H9.43877V-0.625ZM8.18877 2.375V3H8.81377V2.375H8.18877ZM8.18877 0.625H8.81377V0H8.18877V0.625ZM7.8445 0.625V0H7.2195V0.625H7.8445ZM7.8445 2.375H7.2195V3H7.8445V2.375ZM8.18877 3.625H8.81377V3H8.18877V3.625ZM7.8445 3.625V3H7.2195V3.625H7.8445ZM8.18877 4.375V5H8.81377V4.375H8.18877ZM7.8445 4.375H7.2195V5H7.8445V4.375ZM6.5945 3.625H7.2195V3H6.5945V3.625ZM0.625 3.625V3H0V3.625H0.625ZM0.625 4.375H0V5H0.625V4.375ZM6.5945 4.375V5H7.2195V4.375H6.5945ZM7.8445 5.625V5H7.2195V5.625H7.8445ZM7.8445 8.375H7.2195V9H7.8445V8.375ZM8.18877 8.375V9H8.81377V8.375H8.18877ZM8.18877 5.625H8.81377V5H8.18877V5.625ZM9.43877 3.625V3H8.81377V3.625H9.43877ZM9.43877 4.375H8.81377V5H9.43877V4.375ZM15.375 3.625H16V3H15.375V3.625ZM15.375 4.375V5H16V4.375H15.375ZM6.5945 0H7.2195V-1.25H6.5945V0ZM7.2195 0V-0.625H5.9695V0H7.2195ZM7.2195 2.375V0H5.9695V2.375H7.2195ZM0 3H6.5945V1.75H0V3ZM-0.625 3H0V1.75H-0.625V3ZM0 3V2.375H-1.25V3H0ZM0 5V3H-1.25V5H0ZM0 5.625V5H-1.25V5.625H0ZM0 5H-0.625V6.25H0V5ZM6.5945 5H0V6.25H6.5945V5ZM7.2195 9V5.625H5.9695V9H7.2195ZM7.2195 9.625V9H5.9695V9.625H7.2195ZM7.2195 9H6.5945V10.25H7.2195V9ZM8.81377 9H7.2195V10.25H8.81377V9ZM9.43877 9H8.81377V10.25H9.43877V9ZM8.81377 9V9.625H10.0638V9H8.81377ZM8.81377 5.625V9H10.0638V5.625H8.81377ZM16 5H9.43877V6.25H16V5ZM16.625 5H16V6.25H16.625V5ZM16 5V5.625H17.25V5H16ZM16 3V5H17.25V3H16ZM16 2.375V3H17.25V2.375H16ZM16 3H16.625V1.75H16V3ZM9.43877 3H16V1.75H9.43877V3ZM8.81377 0V2.375H10.0638V0H8.81377ZM8.81377 -0.625V0H10.0638V-0.625H8.81377ZM8.81377 0H9.43877V-1.25H8.81377V0ZM7.2195 0H8.81377V-1.25H7.2195V0ZM8.81377 2.375V0.625H7.56377V2.375H8.81377ZM8.18877 0H7.8445V1.25H8.18877V0ZM7.2195 0.625V2.375H8.4695V0.625H7.2195ZM7.8445 3H8.18877V1.75H7.8445V3ZM8.18877 3H7.8445V4.25H8.18877V3ZM8.81377 4.375V3.625H7.56377V4.375H8.81377ZM7.8445 5H8.18877V3.75H7.8445V5ZM7.2195 3.625V4.375H8.4695V3.625H7.2195ZM6.5945 3H0.625V4.25H6.5945V3ZM0 3.625V4.375H1.25V3.625H0ZM0.625 5H6.5945V3.75H0.625V5ZM7.2195 4.375V3.625H5.9695V4.375H7.2195ZM7.2195 5.625V8.375H8.4695V5.625H7.2195ZM7.8445 9H8.18877V7.75H7.8445V9ZM8.81377 8.375V5.625H7.56377V8.375H8.81377ZM8.18877 5H7.8445V6.25H8.18877V5ZM8.81377 3.625V4.375H10.0638V3.625H8.81377ZM15.375 3H9.43877V4.25H15.375V3ZM16 4.375V3.625H14.75V4.375H16ZM9.43877 5H15.375V3.75H9.43877V5Z"/><path fill="#F50100" fill-rule="evenodd" d="M8.84615 -0.666626H7.15385V3.00004H0V5.00004H7.15385V9.66671H8.84615V5.00004H17V3.00004H8.84615V-0.666626Z" clip-rule="evenodd"/></g><path fill="#2E42A5" fill-rule="evenodd" d="M8.02502 5.29993C8.78442 5.29993 9.40002 4.68432 9.40002 3.92493C9.40002 3.16554 8.78442 2.54993 8.02502 2.54993C7.26563 2.54993 6.65002 3.16554 6.65002 3.92493C6.65002 4.68432 7.26563 5.29993 8.02502 5.29993Z" clip-rule="evenodd"/><path fill="#FECA00" fill-rule="evenodd" d="M8.05 4.34558 7.40106 4.79715 7.63 4.04043 7 3.5628 7.79043 3.54669 8.05 2.79993 8.30957 3.54669 9.1 3.5628 8.47 4.04043 8.69894 4.79715 8.05 4.34558zM3.54999 4.28804 3.00921 4.66435 3.19999 4.03375 2.67499 3.63572 3.33368 3.6223 3.54999 3 3.7663 3.6223 4.42499 3.63572 3.89999 4.03375 4.09077 4.66435 3.54999 4.28804zM12.55 4.28804 12.0092 4.66435 12.2 4.03375 11.675 3.63572 12.3337 3.6223 12.55 3 12.7663 3.6223 13.425 3.63572 12.9 4.03375 13.0908 4.66435 12.55 4.28804zM8.04999 1.88802 7.50921 2.26432 7.69999 1.63373 7.17499 1.2357 7.83368 1.22228 8.04999.599976 8.2663 1.22228 8.92499 1.2357 8.39999 1.63373 8.59077 2.26432 8.04999 1.88802zM8.04999 7.18807 7.50921 7.56437 7.69999 6.93378 7.17499 6.53575 7.83368 6.52233 8.04999 5.90002 8.2663 6.52233 8.92499 6.53575 8.39999 6.93378 8.59077 7.56437 8.04999 7.18807z" clip-rule="evenodd"/></g></g></svg>

<svg xmlns="http://www.w3.org/2000/svg" fill="none" viewBox="0 0 16 12"><mask id="NIU_svg__a" width="16" height="12" x="0" y="0" maskUnits="userSpaceOnUse"><path fill="#fff" d="M0 0h16v12H0z"/></mask><g mask="url(#NIU_svg__a)"><path fill="#2E42A5" fill-rule="evenodd" d="M0 0v12h16V0H0z" clip-rule="evenodd"/><mask id="NIU_svg__b" width="16" height="12" x="0" y="0" maskUnits="userSpaceOnUse"><path fill="#fff" fill-rule="evenodd" d="M0 0v12h16V0H0z" clip-rule="evenodd"/></mask><g mask="url(#NIU_svg__b)"><path fill="#FECA00" fill-rule="evenodd" d="M0 8v4h16V8H0z" clip-rule="evenodd"/><mask id="NIU_svg__c" width="16" height="8" x="0" y="0" maskUnits="userSpaceOnUse"><path fill="#fff" d="M0 0h16v8H0z"/></mask><g mask="url(#NIU_svg__c)"><path fill="#fff" d="M-1.131 7.565l3.171.733L8.8 4.563l.716-.418L15.938.787l1.521-1.06-3.48-.322L8.37 2.57 4.314 4.563l-5.445 3.002z"/><path fill="#F50100" d="M-.852 8.01l1.707.56 15.97-8.977h-2.398L-.853 8.009z"/><path fill="#fff" d="M17.185 7.365l.126.755-3.351.178-5.403-3.164-.51.174L-2.04.205l4.165-.801L7.693 2.48l4.355 2.104 5.137 2.781z"/><path fill="#F50100" d="M17.197 7.819l-1.708.56-6.8-3.844-2.016-.43-8.302-4.374H.768l8.298 4.271 2.204.515 5.927 3.302z"/><path fill="#fff" d="M6.595-.625v-.625H5.97v.625h.625zm0 3V3h.625v-.625h-.625zm-7.22 0V1.75h-.625v.625h.625zm0 3.25h-.625v.625h.625v-.625zm7.22 0h.625V5h-.625v.625zm0 4H5.97v.625h.625v-.625zm2.844 0v.625h.625v-.625h-.625zm0-4V5h-.625v.625h.625zm7.186 0v.625h.625v-.625h-.625zm0-3.25h.625V1.75h-.625v.625zm-7.186 0h-.625V3h.625v-.625zm0-3h.625v-.625h-.625v.625zm-1.25 3V3h.625v-.625h-.625zm0-1.75h.625V0h-.625v.625zm-.345 0V0H7.22v.625h.625zm0 1.75H7.22V3h.625v-.625zm.345 1.25h.625V3h-.625v.625zm-.345 0V3H7.22v.625h.625zm.345.75V5h.625v-.625h-.625zm-.345 0H7.22V5h.625v-.625zm-1.25-.75h.625V3h-.625v.625zm-5.969 0V3H0v.625h.625zm0 .75H0V5h.625v-.625zm5.97 0V5h.625v-.625h-.625zm1.25 1.25V5H7.22v.625h.625zm0 2.75H7.22V9h.625v-.625zm.344 0V9h.625v-.625h-.625zm0-2.75h.625V5h-.625v.625zm1.25-2V3h-.625v.625h.625zm0 .75h-.625V5h.625v-.625zm5.936-.75H16V3h-.625v.625zm0 .75V5H16v-.625h-.625zM6.595 0h.625v-1.25h-.625V0zm.625 0v-.625H5.97V0h1.25zm0 2.375V0H5.97v2.375h1.25zM0 3h6.595V1.75H0V3zm-.625 0H0V1.75h-.625V3zM0 3v-.625h-1.25V3H0zm0 2V3h-1.25v2H0zm0 .625V5h-1.25v.625H0zM0 5h-.625v1.25H0V5zm6.595 0H0v1.25h6.595V5zm.625 4V5.625H5.97V9h1.25zm0 .625V9H5.97v.625h1.25zm0-.625h-.625v1.25h.625V9zm1.594 0H7.219v1.25h1.595V9zm.625 0h-.625v1.25h.625V9zm-.625 0v.625h1.25V9h-1.25zm0-3.375V9h1.25V5.625h-1.25zM16 5H9.439v1.25H16V5zm.625 0H16v1.25h.625V5zM16 5v.625h1.25V5H16zm0-2v2h1.25V3H16zm0-.625V3h1.25v-.625H16zM16 3h.625V1.75H16V3zM9.439 3H16V1.75H9.439V3zm-.625-3v2.375h1.25V0h-1.25zm0-.625V0h1.25v-.625h-1.25zm0 .625h.625v-1.25h-.625V0zM7.219 0h1.595v-1.25H7.219V0zm1.595 2.375V.625h-1.25v1.75h1.25zM8.189 0h-.345v1.25h.345V0zm-.97.625v1.75h1.25V.625H7.22zM7.845 3h.345V1.75h-.345V3zm.345 0h-.345v1.25h.345V3zm.625 1.375v-.75h-1.25v.75h1.25zM7.844 5h.345V3.75h-.345V5zM7.22 3.625v.75h1.25v-.75H7.22zM6.595 3H.625v1.25h5.97V3zM0 3.625v.75h1.25v-.75H0zM.625 5h5.97V3.75H.625V5zm6.595-.625v-.75H5.97v.75h1.25zm0 1.25v2.75h1.25v-2.75H7.22zM7.845 9h.344V7.75h-.345V9zm.969-.625v-2.75h-1.25v2.75h1.25zM8.189 5h-.345v1.25h.345V5zm.625-1.375v.75h1.25v-.75h-1.25zM15.375 3H9.439v1.25h5.936V3zM16 4.375v-.75h-1.25v.75H16zM9.439 5h5.936V3.75H9.439V5z"/><path fill="#F50100" fill-rule="evenodd" d="M8.846-.667H7.154V3H0v2h7.154v4.667h1.692V5H17V3H8.846V-.667z" clip-rule="evenodd"/></g><path fill="#2E42A5" fill-rule="evenodd" d="M8.025 5.3a1.375 1.375 0 100-2.75 1.375 1.375 0 000 2.75z" clip-rule="evenodd"/><path fill="#FECA00" fill-rule="evenodd" d="M8.05 4.346l-.649.451.229-.757L7 3.563l.79-.016.26-.747.26.747.79.016-.63.477.229.757-.649-.451zm-4.5-.058l-.54.376.19-.63-.525-.398.659-.014L3.55 3l.216.622.659.014-.525.398.19.63-.54-.376zm9 0l-.54.376.19-.63-.525-.398.659-.014L12.55 3l.216.622.659.014-.525.398.19.63-.54-.376zm-4.5-2.4l-.54.376.19-.63-.525-.398.659-.014L8.05.6l.216.622.659.014-.525.398.19.63-.54-.376zm0 5.3l-.54.376.19-.63-.525-.398.659-.014.216-.622.216.622.659.014-.525.398.19.63-.54-.376z" clip-rule="evenodd"/></g></g></svg>
